X:166
T:Happy Friends, The
M:C
L:1/8
B:Thompson's Compleat Collection of 200 Favourite Country Dances, vol. 3 (London, 1773)
Z:Transcribed and edited by Flynn Titford-Mock, 2007
Z:abc's:AK/Fiddler's Companion
K:F
F>GA>B {d}c2 BA | {d}c2 BA {c}B2 AG | F>GA>B c>de>f | g>ab>a (a2g2) :|
|: {b}a2 gf {b}a2 gf | g>fg>a ge c2 | {a}a2 gf {b}a2 gf | afge f2F2 :|

